X: 1
T: The Dairy Maid
R: reel
M: 4/4
L: 1/8
K: Dmaj
AF ~F2 DFBF|AFDE FE ~E2|AF ~F2 BFAF|E2 DE FD D2|
AF ~F2 DFBF|AFDE FEEF |G2 BG F2 AF|E2 DE FD D2||
d3 f a3 g | fgef dB ~B2|dfaf ~g2 ag| faeg fd d2|
dfaf ~g2 ag| fgef dB ~B2| dfaf g2 ag|faeg fd d2||


Tune 1946	Setting 15370

